X: 45
T: Hand Game Guessing Song (f)
N: Derived from pawnee45.krn
O: Oklahoma, U.S.A.
N: from Pawnee Music by Frances Densmore, 1926
Z: transcribed to **kern format by David Huron, August 2000
C: Skidi and Chaui Bands, 1919
L: 1/8
M: 2/4
Q: 1/4=88
K: C clef=bass
%%linebreak <none>
C> B, B, z[M:3/4] | 
(3C B, A, A,> E, A,3/ F,/ | 
E,> E, E,> E,E,8[M:2/4] | 
C> A, A, z[M:3/4] | 
(3C B, A, A,> E, A,3/ F,/ | 
E,> E, E,> E, E, z[M:2/4] | 
F,> E, E, z[M:3/4] | 
(3F, E, E, E,> E, E, z[M:2/4] | 
F,> E, E, z[M:3/4] | 
(3F, E, E, E,> E, E, z |]  



